X: 1302
T: Kürdîlihicazkâr Sazsemâîsi (Sonbahar)
C: Coşkun Açıkgöz
O: Turkey
F: http://compmusic.upf.edu/node/140
N: kurdilihicazkar--sazsemaisi--aksaksemai--sonbahar--coskun_acikgoz
N: makam= kurdilihicazkar
N: form= sazsemaisi
N: usul= aksaksemai = 10/8
M: 10/8
L: 1/16
K: C _B _e _A 
Q: 1/4=144
%%MIDI tuningsystem comma53
g4 f2ge dced cdcB cAG2  | a4 g2ba c'bd'c' bag6  | 
w:  1. HANE  |   | 
bagf edcB AGAB cdef gagb  | gc'gd' ge'd'c' bagf efg6  | 
w:   |   | 
c'bag bagf agfe defg abag  | f2=e2 _e2d2 ^c2d2 e2=e2 f2g2  | 
w:   |   | 
e4 d2cd efed cBcB AGF2  | G2A2 B2(3gfg (3edc(3dcd (3BcAG6  | 
w:   |   | 
g4 ^f2g3aag =fed6  | f4 _1/4e2f3ggf _edc6  | \
w:  TESLİM  |   | 
e4 d2c3ddB AGF6  | 
w:   | 
gfed cBdc2dBA AGG6  | g4 ^f2g3aag =fed6  | 
w:   |  TESLİM  | 
f4 _1/4e2f3ggf _edc6  | e4 d2c3ddB AGF6  | \
w:   |   | 
gfed cBdc2dBA AGG6  | 
w:   | 
e4 dcB3c.B2 .G2E6  | e4 d2e3de2 f2g6  | \
w:  2. HANE  |   | 
b4 =a2b3_3/4d'c'2 b2a2 _7/8g2f2  | 
w:   | 
_7/8g4 f2f3g=ag f_1/4ef2 e2d2  | c2d2 _1/4e2(3f_7/8g=a gf(3gfe def6  | 
w:   |   | 
b2=a2 _7/8g2f2 e2d4=g2 f2e2  | d4 c2de fgfe dccB AGF2  | 
w:   |   | 
G2A2 B2(3gfg (3edc(3dcd (3BcAG6  | \
w:   | 
g4 ^f2g3aag =fed6  | 
w:  TESLİM  | 
f4 _1/4e2f3ggf _edc6  | e4 d2c3ddB AGF6  | \
w:   |   | 
gfed cBdc2dBA AGG6  | 
w:   | 
g4 ^f2g3aag =fed6  | f4 _1/4e2f3ggf _edc6  | \
w:  TESLİM  |   | 
e4 d2c3ddB AGF6  | 
w:   | 
gfed cBdc2dBA AGG6  | .f2._1/4a2 .a2^gb ac'b3/2a/ gba6  | 
w:   |  3. HANE  | 
c'2b2 _1/4a2ba ^gfed efga bc'ba  | \
w:   | 
bc'd'e' d'c'c'3/2=b/ =abc'2 bd'c'6  | 
w:   | 
d'2c'2 _1/4b2_7/8ab c'bag f_1/4eag fedc  | \
w:   | 
d_1/4efe dcfg _7/8agfe _1/4bc'd'c' bag2  | 
w:   | 
f_1/4ede _1/4a2gf fe(3gfe edd6  | \
w:   | 
cd_1/4ef g2fa gf_ed cBcB AGF2  | 
w:   | 
G2A2 B2(3gfg (3edc(3dcd (3BcAG6  | \
w:   | 
g4 ^f2g3aag =fed6  | 
w:  TESLİM  | 
f4 _1/4e2f3ggf _edc6  | e4 d2c3ddB AGF6  | \
w:   |   | 
gfed cBdc2dBA AGG6  | 
w:   | 
g4 ^f2g3aag =fed6  | f4 _1/4e2f3ggf _edc6  | \
w:  TESLİM  |   | 
e4 d2c3ddB AGF6  | 
w:   | 
gfed cBdc2dBA AGG6  | z12  | g12  | c12  | a12  | f12  | b12  | a12  | 
w:   |  |  4. HANE  |   |   |   |   |   | 
d'4b4a4  | g12  | g8g2e2  | c8f2g2  | a8a2g2  | \
w:   |   |   |   |   | 
f8g2a2  | b8b2=a2  | a8b2c'2  | 
w:   |   |   | 
d'4b4a4  | g12  | f2g2a2g2a2f2  | e2f2g2f2g2e2  | \
w:   |   |   |   | 
d2e2f2e2f2d2  | 
w:   | 
c12  | c2d2e2f2e2d2  | c2B2c2d2B2A2  | G2A2B2d2B2A2  | G12  | \
w:   |   |   |  DÖNÜŞTE YAVAŞLAYARAK  |   | 
f2g2a2g2a2f2  | 
w:   | 
e2f2g2f2g2e2  | d2e2f2e2f2d2  | c12  | c2d2e2f2e2d2  | \
w:   |   |   |   | 
c2B2c2d2B2A2  | 
w:   | 
G2A2B2d2B2A2  | G12  | z18  | c'4c'2c'2c'4c'2c'4  | \
w:  DÖNÜŞTE YAVAŞLAYARAK  |   |  |   | 
b4b2b2b4b2b4  | a4a2a2a4c'2c'2=b2  | 
w:   |   | 
.g4z4z4z2z4  | c'4c'2c'2c'4c'2c'4  | \
w:   |   | 
b4b2b2b4b2b4  | a4a2a2a4c'2c'2=b2  | 
w:   |   | 
.g4z4z4z2z4  | GAGABcBAGABcded4  | cdcdefedcdefgag4  | 
w:   |   |   | 
b2baaggffeededc4  | e2eddccBd2dBBAG4  | 
w:   |   | 
GAGABcBAGABcded4  | cdcdefedcdefgag4  | 
w:   |   | 
b2baaggffeededc4  | e2eddccBd2dBBAG4  | 
w:   |   | 
c'4c'2c'2c'4c'2c'4  | b4b2b2b4b2b4  | \
w:   |   | 
a4a2a2a4c'2c'2=b2  | .g4z4z4z2z4  | 
w:   |   | 
c'4c'2c'2c'4c'2c'4  | b4b2b2b4b2b4  | \
w:   |   | 
a4a2a2a4c'2c'2=b2  | z20  | g4 ^f2g3aag =fed6  | 
w:  *  *  *  YAVAŞLAYARAK  |  |  TESLİM  | 
f4 _1/4e2f3ggf _edc6  | e4 d2c3ddB AGF6  | \
w:   |   | 
gfed cBdc2dBA AGG6  | 
w:   | 
g4 ^f2g3aag =fed6  | f4 _1/4e2f3ggf _edc6  | \
w:   |   | 
e4 d2c3ddB AGF6  | 
w:   | 
gfed cBdc2dBA AGG6  | |


